icons/scalable/qubes-logo.svg

<svg width="103" height="116" viewBox="0 0 103 116" fill="none" xmlns="http://www.w3.org/2000/svg">
<path fill-rule="evenodd" clip-rule="evenodd" d="M44.7326 1.56314C46.5659 0.49375 48.6557 -0.0459986 50.773 0.00307127C52.7052 0.0506829 54.5945 0.587133 56.2674 1.56314L95.2356 24.2394C98.8028 26.3176 101 30.1567 101 34.3112V79.6875C100.996 83.8377 98.7992 87.6714 95.2356 89.7474L56.2674 112.442C52.6985 114.519 48.3015 114.519 44.7326 112.442L5.77032 89.7474C2.2044 87.6729 0.00529879 83.839 0 79.6875V34.3112C0.00111869 30.1555 2.20078 26.3161 5.77032 24.2394L44.7326 1.56314ZM53.6718 26.5053C52.7508 25.9695 51.7109 25.6758 50.6479 25.6511C49.4856 25.6239 48.3382 25.9194 47.3312 26.5053L25.8969 38.9793C23.9347 40.1224 22.7262 42.2343 22.7265 44.5194V69.4794C22.7305 71.7603 23.9384 73.8665 25.8969 75.0075L47.3312 87.4934C49.2931 88.6349 51.7098 88.6349 53.6718 87.4934L75.1053 75.0075C77.0641 73.8667 78.2723 71.7604 78.2764 69.4794V44.5194C78.2766 42.2341 77.0678 40.1222 75.1053 38.9793L53.6718 26.5053Z" fill="#63A0FF"/>
<path d="M99.9391 28L77.9044 40.8919C78.4618 41.8687 78.7558 42.9771 78.7569 44.1056V69.1907C78.7552 71.4859 77.547 73.6062 75.5866 74.7543L54.159 87.3005C53.1975 87.8594 52.1083 88.1533 51 88.1527V113.937C53.0191 113.937 55.003 113.4 56.7534 112.38L65.4217 107.305L76.4831 113.816C81.4305 116.728 89.3958 116.728 94.3432 113.816L99.2894 110.905C104.237 107.993 104.237 103.304 99.2894 100.392L88.2891 93.9172L95.7219 89.5658C99.2857 87.4789 101.483 83.6251 101.487 79.4529V33.8434C101.485 31.7917 100.952 29.7764 99.9391 28V28Z" fill="#3874D8"/>
<path d="M2 28.2702L24.0566 41C24.6129 40.0348 25.4136 39.233 26.3782 38.675L47.8344 26.2962C49.7983 25.1654 52.2165 25.1662 54.1796 26.2983L75.6372 38.6738C76.5966 39.2309 77.3933 40.0294 77.9478 40.9899L100 28.2669C98.9899 26.5174 97.5379 25.0635 95.7892 24.0505L56.7687 1.5442C53.1997 -0.513438 48.8039 -0.514819 45.2335 1.54058L6.22403 24.0475C4.46955 25.0607 3.01276 26.5175 2 28.2715L2 28.2702Z" fill="#99BFFF"/>
</svg>

<svg xmlns="http://www.w3.org/2000/svg" width="103" height="116" fill="none" viewBox="0 0 103 116">
    <path fill="#63A0FF" fill-rule="evenodd" d="M44.733 1.563a11.46 11.46 0 0 1 6.04-1.56c1.932.048 3.821.584 5.494 1.56L95.236 24.24C98.803 26.318 101 30.157 101 34.311v45.377a11.65 11.65 0 0 1-5.764 10.06l-38.969 22.694a11.46 11.46 0 0 1-11.534 0L5.77 89.747C2.204 87.673.005 83.84 0 79.687V34.312c.001-4.155 2.2-7.995 5.77-10.072zm8.939 24.942a6.3 6.3 0 0 0-6.34 0L25.896 38.98a6.41 6.41 0 0 0-3.17 5.54v24.96a6.41 6.41 0 0 0 3.17 5.528L47.33 87.494a6.3 6.3 0 0 0 6.34 0l21.434-12.486a6.41 6.41 0 0 0 3.171-5.528V44.52a6.41 6.41 0 0 0-3.17-5.54z" clip-rule="evenodd"/>
    <path fill="#3874D8" d="M99.94 28 77.903 40.892c.558.977.852 2.085.853 3.214V69.19a6.45 6.45 0 0 1-3.17 5.563L54.159 87.3a6.3 6.3 0 0 1-3.159.853v25.784c2.02 0 4.003-.537 5.753-1.557l8.669-5.075 11.061 6.511c4.947 2.912 12.913 2.912 17.86 0l4.946-2.911c4.948-2.912 4.948-7.601 0-10.513l-11-6.475 7.433-4.351c3.564-2.087 5.761-5.94 5.765-10.113v-45.61A11.8 11.8 0 0 0 99.939 28"/>
    <path fill="#99BFFF" d="M2 28.27 24.057 41a6.35 6.35 0 0 1 2.321-2.325l21.456-12.379a6.36 6.36 0 0 1 6.346.002l21.457 12.376a6.35 6.35 0 0 1 2.31 2.316L100 28.267a11.54 11.54 0 0 0-4.21-4.216L56.768 1.543a11.56 11.56 0 0 0-11.535-.003L6.224 24.048A11.54 11.54 0 0 0 2 28.272z"/>
</svg>
